X:1
T:I Can't Help But Wonder Where I'm Bound
M:4/4
L:1/8
K:C
 EF| GG GA G3 G/2G/2| F F/2F/2 EE D2 AA| G3 GF FF D| E6 EF| G3/2 G/2 GA G2 AG|\
 F3/2 F/2 EE D2 AA| G3 GF F E/2C/2 D| C6 DE| F2 F3/2 D/2 EE DD| C2 B,/2 B,3/2 A,2 z2|\
 z FF FE ED D| C6|

